X: 21
T: Piano Sonata no. 6 in F major, Presto
C: Ludwig van Beethoven
%%abc-version 2.0
%%abcx-abcm2ps-target-version 5.9.1 (29 Sep 2008)
%%abc-creator hum2abc beta
%%abcx-conversion-date 2021/01/11 11:42:13
%%abc-edited-by Craig Stuart Sapp
%%abcx-initial-encoding-date 2005/09/03/
%%gracespace 0 6 6
%%humdrum-veritas 871527890
%%humdrum-veritas-data 4281116056
%%linebreak <none>
%%barnumbers 0
L: 1/8
M: 2/4
Q: "Presto" 1/4=152
%%staves {1 2}
V: 1 clef=treble
V: 2 clef=bass
K: F
[V:1] z [I:setbarnb 1]| 
[V:2] .C, | 
[V:1] z4 | 
[V:2] .F,.F,.F,.C, | 
[V:1] z4 | 
[V:2] .A,.A,.A,.F, | 
[V:1] z4 | 
[V:2] .C.C C/D/C/B,/ | 
[V:1] z2z .C | 
[V:2] .A,.A, A,/B,/A,/G,/ | 
[V:1] .F.F.F.C | 
[V:2] .A,C/B,/ .A,.G, | 
[V:1] .A.A.A.F | 
[V:2] .F,.E,.F,.D, | 
[V:1] .c.c c/d/.c/B/ | 
[V:2] .E,.C,.D,.E, | 
[V:1] .A.A G/A/G/F/ & z2z G | 
[V:2] .F,.G,.A,.=B,[K:clef=treble] | 
[V:1] .c.c.c.G | 
[V:2] .[CE].[DF].[EG].[DF] | 
[V:1] .e.ee.c | 
[V:2] .[CE].[=B,D].[CE].[A,C] | 
[V:1] .g.g g/a/g/f/ | 
[V:2] .[=B,D].[G,B,].[A,C].[B,D] | 
[V:1] .e.e e/d/e/c/ | 
[V:2] .[CE].[DF].[EG].[CE] | 
[V:1] .a.a a/b/a/g/ | 
[V:2] .[^CE].[A,C].[=B,D].[CE] | 
[V:1] .f.f f/e/f/d/ | 
[V:2] .[DF].[EG].[FA].[DF] | 
[V:1] .f'.f' e'/^d'/e'/c'/ | 
[V:2] [=B,DG][B,DG] [CEG] z | 
[V:1] .f'.f' e'/^d'/e'/c'/ | 
[V:2] [=B,DG][B,DG] [CEG] z[K:clef=bass] | 
[V:1] =d'/c'/=b/a/ g/f/e/d/ | 
[V:2] [F,A,D] z [G,=B,D] z | 
[V:1] c/=B/c/d/ e/f/g/e/ | 
[V:2] [C,2E,2G,2C2]z2 | 
[V:1] f/d/f/d/ e/^d/e/c/ | 
[V:2] [=B,,D,F,G,][B,,D,F,G,] [C,E,G,] z | 
[V:1] f/=d/f/d/ e/^d/e/c/ | 
[V:2] [=B,,D,F,G,][B,,D,F,G,] [C,E,G,] z | 
[V:1] a/^g/a/g/ a/=g/f/e/ | 
[V:2] F,,F,F,F, | 
[V:1] d/c/=B/A/ G/F/E/D/[K:clef=bass] | 
[V:2] G,,G,G,G, | 
[V:1] .C.[E,G,].[E,G,].[E,C] | 
[V:2] .C,.C,.C,.G,, & C,,4 | 
[V:1] .[E,G,].[E,G,].[E,G,].[E,C] | 
[V:2] .C,.C,.C,.G,, & C,,4 | 
[V:1] .[F,G,].[F,D].[F,D].[F,D] | 
[V:2] .D,.C,.=B,,.A,, & C,,4 | 
[V:1] .[F,D].[F,D] [F,/D/]E/[F,/D/]E/ | 
[V:2] .G,,.A,,.=B,,.G,, & C,,4 | 
[V:1] .[E,C].[E,G,].[E,G,].[E,C] | 
[V:2] .C,.C,.C,.G,, & C,,4 | 
[V:1] .[E,G,].[E,G,].[E,G,].[E,C] | 
[V:2] .C,.C,.C,.G,, & C,,4 | 
[V:1] [F,G,].[F,D].[F,D].[F,D] | 
[V:2] .D,.C,.=B,,.A,, & C,,4- | 
[V:1] .[F,D].[F,D] [F,/D/]E/[F,/D/]E/ | 
[V:2] .G,,.A,,.=B,,.G,, & C,,4 | 
[V:1] .[E,C].G,[E,C].G, | 
[V:2] .[C,,C,].G,,.[C,,C,].G,, | 
[V:1] [E,2C2]z :|]|:  
[V:2] [C,,2C,2]z :|]|:  
[V:1] ._E, [I:setbarnb 33]| 
[V:2] ._E,, | 
[V:1] ._A,.A, {/B,} A,/G,/A,/B,/[K:clef=treble] | 
[V:2] ._A,,.A,, {/B,,} A,,/G,,/A,,/B,,/ | 
[V:1] .C.C {/_D} C/=B,/C/D/ | 
[V:2] .C,C, {/_D,} C,/=B,,/C,/D,/ | 
[V:1] ._E.E {/F} E/=D/E/F/ | 
[V:2] ._E,.E, {/F,} E,/=D,/E,/F,/ | 
[V:1] .GG G/_E/F/G/ | 
[V:2] .G,.G, G,/_E,/F,/G,/ | 
[V:1] ._A.A.A._E | 
[V:2] _A,/C/A,/C/ A,/C/A,/C/ | 
[V:1] .c.c.c._A | 
[V:2] _A,/C/A,/C/ A,/C/A,/C/ | 
[V:1] ._e.e e/f/e/=d/ | 
[V:2] _A,/B,/A,/B,/ A,/B,/A,/B,/ | 
[V:1] ._e.e e/f/e/_d/ | 
[V:2] [_E,/G,/]B,/[E,/G,/]B,/ [E,/G,/]B,/[E,/G,/]B,/ | 
[V:1] .[c_a] .a.a_e | 
[V:2] _A,2[K:clef=treble]z .C | 
[V:1] .c'.c'.c'._a | 
[V:2] ._A.A.A._E | 
[V:1] ._e'.e' e'/f'/e'/_d'/ | 
[V:2] .c.c c/_d/c/B/ | 
[V:1] .c'.c' c'/_d'/c'/b/ | 
[V:2] .=A._e e/f/e/_d/ | 
[V:1] .=a.a ab & _ee e/f/e/_d/ | 
[V:2] .c.c c/_d/c/B/ | 
[V:1] c'2z2 & c2z2 | 
[V:2] .=A.A A/B/A/F/ | 
[V:1] ._d'.d' d'/_e'/d'/c'/ | 
[V:2] B2z2 | 
[V:1] .b.b b/c'/b/_a/ | 
[V:2] ._d.d d/_e/d/c/ | 
[V:1] .[=eg].[eg][eg].[f_a] | 
[V:2] .B.B B/c/B/_A/ | 
[V:1] [g4b4] | 
[V:2] G/_A/G/F/ =E/D/E/C/ | 
[V:1] ._a.a a/g/a/f/ | 
[V:2] F4 | 
[V:1] =b4 & f.f f/_e/f/d/ | 
[V:2] G4 | 
[V:1] .c'.c' c'/=b/c'/_e'/ & _e2z2 | 
[V:2] C4 | 
[V:1] ^f4 & .c.c c/=B/c/A/ | 
[V:2] D4 | 
[V:1] g2z2 & .B2B/A/B/G/ | 
[V:2] G,4 | 
[V:1] ^f.f f/e/f/d/ & c4 | 
[V:2] [K:clef=bass][D,4D4] | 
[V:1] .g.g g/^f/g/b/ & B2z2 | 
[V:2] [G,,4G,4] | 
[V:1] ^c4 & .G.G G/=F/G/E/ | 
[V:2] [A,,4A,4] | 
[V:1] d2z2 & .F.F F/E/F/D/ | 
[V:2] [D,,4D,4] | 
[V:1] .^c.c c/=B/c/A/ & G4 | 
[V:2] [A,,4A,4] | 
[V:1] .d.d d/^c/d/f/ & F2z2 | 
[V:2] [D,,4D,4] | 
[V:1] ^G4 & F.F F/E/F/D/ | 
[V:2] [B,,,4B,,4] | 
[V:1] A4 & .^C.C C/=B,/C/A,/ | 
[V:2] .[A,,,A,,].E, E,/^D,/E,/^C,/ | 
[V:1] ^G4 & D.D D/^C/D/=B,/ | 
[V:2] F,F, F,/E,/F,/=D,/ & A,,4 | 
[V:1] A4 & .^C.C C/=B,/C/A,/ | 
[V:2] .E,.E, E,/^D,/E,/^C,/ & A,,4 | 
[V:1] ^G4 & .D.D D/^C/D/=B,/ | 
[V:2] .F,.F, F,/E,/F,/=D,/ & A,,4 | 
[V:1] [^CA] a/^g/ a/g/a/g/ | 
[V:2] [A,,2E,2]z2 | 
[V:1] a/^g/a/g/ a/g/a/g/ | 
[V:2] z4 | 
[V:1] .[^fa][fa].[fa].[fa] & AAAd | 
[V:2] DD.D.A, & D,4 | 
[V:1] .[^fa].[fa].[fa][fa] & AAAd | 
[V:2] .D.D.D.A, & D,4 | 
[V:1] a=b^c'.d' & g[ga][ga][ga] | 
[V:2] .E.D.^C.=B, & D,4- | 
[V:1] .e'.^c'.d'.e' & [ga][ga][ga][ga] | 
[V:2] .A,.^C=B,.A, & D,4 | 
[V:1] .[^fa].[fa][fa].[fa] & AAAd | 
[V:2] .D.D.D.A, & D,4 | 
[V:1] .[^fa].[fa].[fa].[fa] & AAAd | 
[V:2] .D.DD.A, & D,4 | 
[V:1] a=b.^c'.d' & g[ga][ga][ga] | 
[V:2] .E.D.^C.=B, & D,4- | 
[V:1] e'.^c'.d'.e' & [ga][ga][ga][ga] | 
[V:2] .A,.^C.=B,.A,[K:clef=treble] & D,4 | 
[V:1] .a.a=b=c' & ^ffff | 
[V:2] .d.=c.=B.A | 
[V:1] .d'.=b.c'.d' & =ffff | 
[V:2] .G.=B.A.G | 
[V:1] .g.g.a.b & eeee | 
[V:2] .c.B.A.G | 
[V:1] .c'.a.b.c' & _eeee | 
[V:2] .F.A.G.F | 
[V:1] .[df].[df].[=eg].[fa] | 
[V:2] .B.c.B.A | 
[V:1] .[gb].[gb].[gb].[gb] | 
[V:2] .G.F.E.D[K:clef=bass] | 
[V:1] .[gb].[gb].[gb].[gb] | 
[V:2] .C.=B,._B,.A, | 
[V:1] .[gb].[ab].[gb].[fb] | 
[V:2] .G,.F,.E,.D, | 
[V:1] [e/b/]c'/d'/c'/ b/a/g/f/ | 
[V:2] C,2z2 | 
[V:1] e/f/g/f/ e/d/c/B/ | 
[V:2] z2z (3C,,/D,,/E,,/ | 
[V:1] Ac'/b/ a/g/f/e/ | 
[V:2] .F,,.F,,.F,,.C,, | 
[V:1] f/e/d/c/ B/A/G/F/ | 
[V:2] .A,,.A,,.A,,.F,, | 
[V:1] E/F/G/F/ E/C/D/E/ | 
[V:2] .C,.C, C,/D,/C,/B,,/ | 
[V:1] F/C/F/C/ F/C/G/C/ | 
[V:2] .A,,.A,, A,,/B,,/A,,/G,,/ | 
[V:1] .A.F.F.C | 
[V:2] F,, C/B,/ A,/G,/F,/E,/ | 
[V:1] .A.A.A.F | 
[V:2] F,/E,/D,/C,/ B,,/A,,/G,,/F,,/ | 
[V:1] .c.c c/d/c/B/ | 
[V:2] E,,/F,,/G,,/F,,/ E,,/C,,/D,,/E,,/ | 
[V:1] A/c/G/^c/ ^F/d/A/=c/ | 
[V:2] .F,,._E,,.D,,.^F,, | 
[V:1] Bd'/c'/ b/a/g/^f/ | 
[V:2] .G,,.G,,.G,,.D,, | 
[V:1] g/=f/_e/d/ c/B/A/G/ | 
[V:2] .B,,.B,,.B,,.G,, | 
[V:1] ^F/G/A/G/ F/D/=E/F/ | 
[V:2] .D,.D, D,/_E,/D,/C,/ | 
[V:1] G/D/G/D/ G/D/A/D/ | 
[V:2] .B,,.B,, B,,/C,/B,,/A,,/ | 
[V:1] .B.G.G.D | 
[V:2] G,, D/C/ B,/A,/G,/^F,/ | 
[V:1] .B.B.B.G | 
[V:2] G,/=F,/_E,/D,/ C,/B,,/A,,/G,,/ | 
[V:1] .d.d d/_e/d/c/ | 
[V:2] ^F,,/G,,/A,,/G,,/ F,,/D,,/=E,,/F,,/ | 
[V:1] B/d/=e/B/ f/A/_e/c/ | 
[V:2] G,,_G,,F,,A,, | 
[V:1] d f'/_e'/ d'/c'/b/a/ | 
[V:2] .B,,.B,,.B,,.F,, | 
[V:1] b/a/g/f/ _e/d/c/B/ | 
[V:2] .D,.D,.D,.B,, | 
[V:1] A/B/c/B/ A/F/G/A/ | 
[V:2] .F,.F, F,/G,/F,/_E,/ | 
[V:1] B/F/B/F/ B/F/c/F/ | 
[V:2] .D,.D, D,/_E,/D,/C,/ | 
[V:1] _d B/b/ B/b/F/f/ | 
[V:2] B,, B,/_D/ B,/D/B,/D/ | 
[V:1] _d/_d'/d/d'/ d/d'/B/b/ | 
[V:2] B,/_D/B,/D/ B,/D/B,/D/ | 
[V:1] f/f'/f/f'/ f/f'/_e/_e'/ | 
[V:2] F,/C/A,/C/ A,/C/A,/C/ | 
[V:1] _d/_d'/d/d'/ d/d'/B/b/ | 
[V:2] B,/_D/B,/D/ B,/D/B,/D/ | 
[V:1] f/f'/f/f'/ f/f'/_e/_e'/ | 
[V:2] F,/C/A,/C/ A,/C/A,/C/ | 
[V:1] _d/_d'/d/d'/ d/d'/c/c'/ | 
[V:2] B,/_D/B,/D/ B,/D/C/_E/ | 
[V:1] B/b/B/b/ B/b/_A/_a/ | 
[V:2] _D/F/D/F/ D/F/C/_E/ | 
[V:1] _G/_g/G/g/ G/g/F/f/ | 
[V:2] B,/_D/B,/D/ B,/D/_A,/C/ | 
[V:1] =E/=e/E/e/ E/e/=G/=g/ | 
[V:2] =G,/B,/G,/B,/ G,/B,/G,/B,/ | 
[V:1] F/f/_A/_a/ G/g/B/b/ | 
[V:2] _A,/C/A,/C/ =E,/C/E,/C/ | 
[V:1] _A/_a/c/c'/ =A/=a/c/c'/ | 
[V:2] F,/C/F,/C/ _E,/F,/E,/F,/ | 
[V:1] B/b/_d/_d'/ c/c'/_e/_e'/ | 
[V:2] _D,/F,/D,/F,/ =A,,/F,/A,,/F,/ | 
[V:1] _d/_d'/d/d'/ d/d'/c/c'/ | 
[V:2] B,,/F,/B,,/F,/ B,,/F,/C,/F,/ | 
[V:1] =B/=b/B/b/ B/b/f/f'/ | 
[V:2] _D,/F,/D,/F,/ D,/F,/_D,,/D,/ | 
[V:1] =e/=e'/e/e'/ e/e'/B/b/ | 
[V:2] C,,/C,/C,,/C,/ C,,/C,/E,,/E,/ | 
[V:1] =A/=a/A/a/ A/a/_e/_e'/ | 
[V:2] F,,/F,/F,,/F,/ F,,/F,/A,,,/A,,/ | 
[V:1] d d'/^c'/ d'/=c'/b/a/ | 
[V:2] B,,,/B,,/B,,,/B,,/ B,,,/B,,/=B,,,/=B,,/ | 
[V:1] g/f/=e/d/ c/B/A/G/ | 
[V:2] C,,/C,/C,,/C,/ C,,/C,/C,,/C,/ | 
[V:1] .F.[A,C].[A,C].[A,F] | 
[V:2] .F,.F,.F,.C, & F,,4 | 
[V:1] .[A,C].[A,C].[A,C].[A,F] | 
[V:2] .F,.F,.F,.C, & F,,4 | 
[V:1] .[B,C].[B,G].[B,G].[B,G] | 
[V:2] .G,.F,.E,.D, & F,,4- | 
[V:1] .[B,G].[B,G] [B,/G/]A/[B,/G/]A/ | 
[V:2] C,D,.E,.C, & F,,4 | 
[V:1] .[A,F].[A,C].[A,C].[A,F] | 
[V:2] .F,.F,.F,.C, & F,,4 | 
[V:1] .[A,C].[A,C].[A,C].[A,F] | 
[V:2] .F,F,.F,.C, | 
[V:1] .[B,C].[B,G].[B,G].[B,G] | 
[V:2] .G,.F,.E,.D, & F,,4- | 
[V:1] .[B,G].[B,G] [B,/G/]A/[B,/G/]A/ | 
[V:2] .C,D,.E,.C, & F,,4 | 
[V:1] [A,F] .[cac'].[cac'].[fac'] | 
[V:2] z .F.F.C & F,4 | 
[V:1] .[ac'].[ac'].[ac'].[ac'] & cccf | 
[V:2] FF.F.C & F,4 | 
[V:1] .[bc'].[bc'].[bc'].[bc'] & cdef | 
[V:2] .G.F.E.D & F,4- | 
[V:1] .[bc'].[bc'].[bc'][bc'] & gefg | 
[V:2] .C.E.D.C & F,4 | 
[V:1] .[ac'].[ac'].[ac'][ac'] & cccf | 
[V:2] .F.F.F.C & F,4 | 
[V:1] .[ac'].[ac'].[ac'].[ac'] & cccf | 
[V:2] .F.F.F.C & F,4 | 
[V:1] [bc'].[bc'].[bc'].[bc'] & cdef | 
[V:2] .G.F.E.D & F,4- | 
[V:1] .[bc'].[bc'][bc'].[bc'] & gefg | 
[V:2] .C.E.D.C & F,4 | 
[V:1] [ac'] zz2 & f .[ac'].[ac'].[ac'] | 
[V:2] .F[K:clef=treble] .e.d.c | 
[V:1] .[egc'].[egc'].[egd'].[ege'] | 
[V:2] .B.A.G.c | 
[V:1] .[faf'] .[cac'].[cac'].[cac'] | 
[V:2] .F[K:clef=bass] .E.D.C | 
[V:1] .[cbc'].[cbc'].[dbc'].[ebc'] | 
[V:2] .B,A,.G,.C | 
[V:1] .[ff'].[ee'].[dd'].[cc'] | 
[V:2] .[F,A,].[F,A,].[F,A,].[F,A,] | 
[V:1] .[Bb].[Aa].[Gg].[cc'] | 
[V:2] .[F,G,].[F,G,].[E,G,][E,G,] | 
[V:1] .[Ff].[Ee].[Dd].[Cc] | 
[V:2] .F, .C,,.C,,.C,, | 
[V:1] .[B,B].[A,A].[G,G].[Cc] | 
[V:2] .C,,.C,,.D,,.E,, | 
[V:1] F2z2 | 
[V:2] F,2z2 & [F,,,2F,,2]z2 | 
[V:1] !fermata!z2z :|]  
[V:2] !fermata!z2z :|]  


